X: 1470
T: the Humors of Schull   #2
R: reel
%S: s:2 b:12(6+6)
B: O'Neill's 1850 #1470
O: Beamish
Z: Bob Safranek, rjs@gsp.org
Z: Ornament (~) is a mordant.
Z: Compacted via repeats and multiple endings [JC]
M: C|
L: 1/8
K: Am	% really Adorian
|: EAAA cAAA | BGGG BcdB |\
[1 eddB A2(ge) | dBGA (BA) A2 :|\
[2 EAAB cde^f | gedB A2z2 |]
|: eaaa a2(ba) | a2(ba) age^f |\
[1 g2gg gabg | gedB (~BA) A2 :|\
[2 gedB {d}cBce | gedB A2z2 |]
